X:1
T:Allegro Molto in C Major - W.A. Mozart
T:Allegro Molto in C Major - W.A. Mozart
T:W.A. Mozart
C:W.A. Mozart
%%score { ( 1 3 ) | 2 }
L:1/8
Q:1/4=144
M:3/4
K:C
V:1 treble nm="Piano" snm="Pno."
V:3 treble 
V:2 bass 
V:1
"^Allegro" G | e/g/f/g/ c/e/d/e/ G/c/B/c/ | E/G/F/G/ z2 z2 | e/g/f/g/ c/e/d/e/ G/c/B/c/ | %4
 E/G/F/G/ z2 z2 | z2 z g Tgf/g/ | Ma2 z c' c'b/a/ |{a} g2 !turn!c2 z g | Ma2 z c' c'b/a/ | %9
{a} g2 c2 z g |{g} f2 !turn!G2 z d/f/ |{f} e2 !turn!c2 z e/g/ |{g} f2 !turn!G2 z d/f/ | %13
{/f} ec ge c'e | e2 d2[Q:1/4=70] z[Q:1/4=120] !turn!d |[Q:1/4=150] e/c/d/e/ ^f/g/a/b/ c'e | %16
 d/B/c/d/ e/^f/g/a/ bd | c/A/B/c/ d/e/^f/g/ ac | B/G/A/B/ c/d/e/^f/ g/d/c/B/ | %19
 A/^G/A/B/ c/B/c/d/ e/E/^F/=G/ | ^F/D/E/F/ G/A/B/^c/ !fermata!Md2[Q:1/4=50] | %21
[Q:1/4=150] _G/d/A/d/ ^F/d/A/d/ F/d/A/d/ | G/d/B/d/ G/d/B/d/ G/d/B/d/ | %23
 _G/d/A/d/ ^F/d/A/d/ F/d/A/d/ | G/d/B/d/ G/d/B/d/ G/d/B/d/ | ^F/d/A/d/ F2 z2 | !turn!G3 g Tg^f/g/ | %27
 e'2 d'2 ^f2 | g3 g Tg^f/g/ | e2 d2 ^F2 | G/A/B/A/ GB, CD | E/^F/G/F/ G/A/B/A/ B/c/d/c/ | %32
 de/^f/ g2 z d | de B2 A2 | G/A/B/A/ GB, CD | E{GA}(3B/B/A/ GB, CD | z2 z2 z G | %37
 e/g/f/g/ c/e/d/e/ G/c/B/c/ | E/G/F/G/ z2 z2 | e/g/f/g/ c/e/d/e/ G/c/B/c/ | E/G/F/G/ z2 z2 | %41
 z2 z g Tgf/g/ | Ma2 z c' c'b/a/ |{a} g2 !turn!c2 z g | Ma2 z c' c'b/a/ |{a} g2 c2 z g | %46
{g} f2 !turn!G2 z d/f/ |{f} e2 !turn!c2 z e/g/ |{g} f2 !turn!G2 z d/f/ |{/f} ec ge c'e | %50
 e2 d2 z !turn!d[Q:1/4=70] | e/[Q:1/4=150]c/d/e/ ^f/g/a/b/ c'e | d/B/c/d/ e/^f/g/a/ bd | %53
 c/A/B/c/ d/e/^f/g/ ac | B/G/A/B/ c/d/e/^f/ g/d/c/B/ | A/^G/A/B/ c/B/c/d/ e/E/^F/=G/ | %56
 ^F/D/E/F/ G/A/B/^c/ !fermata!Md2[Q:1/4=50] |[Q:1/4=150] _G/d/A/d/ ^F/d/A/d/ F/d/A/d/ | %58
 G/d/B/d/ G/d/B/d/ G/d/B/d/ | _G/d/A/d/ ^F/d/A/d/ F/d/A/d/ | G/d/B/d/ G/d/B/d/ G/d/B/d/ | %61
 ^F/d/A/d/ F2 z2 | !turn!G3 g Tg^f/g/ | e'2 d'2 ^f2 | g3 g Tg^f/g/ | e2 d2 ^F2 | G/A/B/A/ GB, CD | %67
 E/^F/G/F/ G/A/B/A/ B/c/d/c/ | de/^f/ g2 z d | de B2 A2 | G/A/B/A/ GB, CD | E{GA}(3B/B/A/ GB, CD | %72
 z2 z2 z d | g/b/a/b/ d/g/^f/g/ B/d/c/d/ | G/B/A/B/ z2 z2 | g/b/a/b/ d/g/^f/g/ B/d/c/d/ | %76
 G/B/A/B/ z2 z2 | z2 z d Tdc/d/ | e3 g a/g/^f/e/ |{e} d2 !turn!G2 z d | e2 z g g_g/e/ | %81
{e} d2 G2 z2 | d2 z f g/f/e/d/ |{d} ^c2 A2 z2 | !turn!e2 z _b c'/b/a/g/ |{g} f2 d2 z2 | %86
 !turn!e2 z g a/g/f/e/ |{e} _e2 B2 z2 | a2 z c' c'b/a/ |{a} g2 e2 z2 | %90
 z/ b/a/b/ g/b/^f/b/ e/b/d/b/ | c/a/g/a/ ^f/a/e/a/ d/a/c/a/ | B/g/^f/g/ e/g/d/g/ c/g/B/g/ | %93
 A/^f/e/f/ _e/f/_d/f/ B/f/A/f/ | z/ B/^c/_e/ =e/^f/g/a/ b/g/f/e/ | c'/^f/g/a/ b/e/f/g/ B_e | %96
{/_e} =e2 z2 z G |[K:C] e/g/f/g/ c/e/d/e/ G/c/B/c/ | E/G/F/G/ z2 z2 | c/G/A/B/ c/d/e/f/ g_B | %100
 A/F/G/A/ _B/c/d/e/[Q:1/4=40] !fermata!f2 |[Q:1/4=150] d/_g/e/^f/ A/d/^c/d/ ^F/A/G/A/ | %102
 D/_G/E/^F/ z4 | z/ A/B/^c/ d/e/^f/g/ a=c | B/G/A/B/ c/d/e/^f/[Q:1/4=40] !fermata!g2 | %105
[Q:1/4=150] B/g/d/g/ B/g/d/g/ B/g/d/g/ | c/g/e/g/ c/g/e/g/ c/g/e/g/ | B/g/d/g/ B/g/d/g/ B/g/d/g/ | %108
 c/g/e/g/ c/g/e/g/ c/g/e/g/ | B/g/d/g/ !turn!G2[K:bass] F,2 |[K:treble] Mc3 c' Md'b/c'/ | %111
 a2 g2 B2 | c3 c' Md'b/c'/ | a2 g2 B2 | c/d/e/d/ cEFG | A/B/c/B/ c/d/e/d/ e/f/g/f/ | %116
 ga/b/ c'2 z g | ga e2 d2 | c/d/e/d/ cE FG | A{/cd}(3e/e/d/ cE FG | C2 z z z d | %121
 g/b/a/b/ d/g/^f/g/ B/d/c/d/ | G/B/A/B/ z2 z2 | g/b/a/b/ d/g/^f/g/ B/d/c/d/ | G/B/A/B/ z2 z2 | %125
 z2 z d Tdc/d/ | e3 g a/g/^f/e/ |{e} d2 !turn!G2 z d | e2 z g g_g/e/ |{e} d2 G2 z2 | %130
 d2 z f g/f/e/d/ |{d} ^c2 A2 z2 | !turn!e2 z _b c'/b/a/g/ |{g} f2 d2 z2 | !turn!e2 z g a/g/f/e/ | %135
{e} _e2 B2 z2 | a2 z c' c'b/a/ |{a} g2 e2 z2 | z/ b/a/b/ g/b/^f/b/ e/b/d/b/ | %139
 c/a/g/a/ ^f/a/e/a/ d/a/c/a/ | B/g/^f/g/ e/g/d/g/ c/g/B/g/ | A/^f/e/f/ _e/f/_d/f/ B/f/A/f/ | %142
 z/ B/^c/_e/ =e/^f/g/a/ b/g/f/e/ | c'/^f/g/a/ b/e/f/g/ B_e | e4 z G | e/g/f/g/ c/e/d/e/ G/c/B/c/ | %146
 E/G/F/G/ z2 z2 | c/G/A/B/ c/d/e/f/ g_B | A/F/G/A/ _B/c/d/e/ !fermata!f2 | %149
 d/_g/e/^f/ A/d/^c/d/ ^F/A/G/A/ | D/_G/E/^F/ z4 | z/ A/B/^c/ d/e/^f/g/ a=c | %152
 B/G/A/B/ c/d/e/^f/ !fermata!g2 | B/g/d/g/ B/g/d/g/ B/g/d/g/ | c/g/e/g/ c/g/e/g/ c/g/e/g/ | %155
 B/g/d/g/ B/g/d/g/ B/g/d/g/ | c/g/e/g/ c/g/e/g/ c/g/e/g/ | B/g/d/g/ !turn!G2[K:bass] F,2 | %158
[K:treble] Mc3 c' Md'b/c'/ | a2 g2 B2 | c3 c' Md'b/c'/ | a2 g2 B2 | c/d/e/d/ cEFG | %163
 A/B/c/B/ c/d/e/d/ e/f/g/f/ | ga/b/ c'2 z g | ga e2 d2 | c/d/e/d/ cE FG | A{/cd}(3e/e/d/ cE FG | %168
 C6 |] %169
V:2
 z |!f! [C,C]2 z4 | z2 G,/C/B,/C/ E,/G,/F,/G,/ | [C,C]2 z2 z2 | z2 G,/C/B,/C/ E,/G,/F,/G,/ | %5
 C,/C/C,/C/ E,/C/D,/C/ E,/C/C,/C/ | F,/C/A,/C/ F,/C/A,/C/ F,/C/A,/C/ | %7
 E,/C/G,/C/ E,/C/G,/C/ E,/C/G,/C/ | F,/C/A,/C/ F,/C/A,/C/ F,/C/A,/C/ | %9
 E,/C/G,/C/ E,/C/G,/C/ E,/C/G,/C/ | G,/D/B,/D/ G,/D/B,/D/ G,/D/B,/D/ | %11
 C,/C/G,/C/ E,/C/G,/C/ C,/C/G,/C/ | G,/D/B,/D/ G,/D/B,/D/ G,/D/B,/D/ | %13
 E,/C/G,/C/ E,/C/G,/C/ ^F,/C/A,/C/ | G,,/G,/^F,/G,/ D,/G,/B,,/D,/ G,,2 |[I:staff -1] [CA]4 [CA]2 | %16
 [B,A]4 [B,G]2 |[I:staff +1] [A,G]4 [A,^F]2 | [G,G]4 [D,B,]2 | [C,C]4 [_D,_D]2 | %20
 [D,D]4 !fermata![D,,D,]2 | D,4 MC2 | B,2 G,2 B,2 | D,4 MC2 | B,2 G,2 B,2 | D2 D,2 C,2 | %26
 B,,/G,/D,/G,/ B,,/G,/D,/G,/ B,,/G,/D,/G,/ | C,/A,/E,/A,/ D,/B,/G,/B,/ D,/C/A,/C/ | %28
 E,/B,/G,/B,/ B,,/G,/D,/G,/ B,,/G,/D,/G,/ | C,/A,/E,/A,/ D,/B,/G,/B,/ D,/C/A,/C/ | %30
 [G,B,]2 z B,, C,D, | E,/^F,/G,/F,/ G,/A,/B,/A,/ B,/C/D/C/ |[I:staff -1] DE/^F/ G2[I:staff +1] z2 | %33
 B,C D2 D,2 | G,2 z B,, C,D, | E,2 z B,, C,D, | [G,,G,]2 z4 | [C,C]2 z2 z2 | %38
 z2 G,/C/B,/C/ E,/G,/F,/G,/ | [C,C]2 z2 z2 | z2 G,/C/B,/C/ E,/G,/F,/G,/ | %41
 C,/C/C,/C/ E,/C/D,/C/ E,/C/C,/C/ | F,/C/A,/C/ F,/C/A,/C/ F,/C/A,/C/ | %43
 E,/C/G,/C/ E,/C/G,/C/ E,/C/G,/C/ | F,/C/A,/C/ F,/C/A,/C/ F,/C/A,/C/ | %45
 E,/C/G,/C/ E,/C/G,/C/ E,/C/G,/C/ | G,/D/B,/D/ G,/D/B,/D/ G,/D/B,/D/ | %47
 C,/C/G,/C/ E,/C/G,/C/ C,/C/G,/C/ | G,/D/B,/D/ G,/D/B,/D/ G,/D/B,/D/ | %49
 E,/C/G,/C/ E,/C/G,/C/ ^F,/C/A,/C/ | G,,/G,/^F,/G,/ D,/G,/B,,/D,/ G,,2 |[I:staff -1] [CA]4 [CA]2 | %52
 [B,A]4 [B,G]2 |[I:staff +1] [A,G]4 [A,^F]2 | [G,G]4 [D,B,]2 | [C,C]4 [_D,_D]2 | %56
 [D,D]4 !fermata![D,,D,]2 | D,4 MC2 | B,2 G,2 B,2 | D,4 MC2 | B,2 G,2 B,2 | D2 D,2 C,2 | %62
 B,,/G,/D,/G,/ B,,/G,/D,/G,/ B,,/G,/D,/G,/ | C,/A,/E,/A,/ D,/B,/G,/B,/ D,/C/A,/C/ | %64
 E,/B,/G,/B,/ B,,/G,/D,/G,/ B,,/G,/D,/G,/ | C,/A,/E,/A,/ D,/B,/G,/B,/ D,/C/A,/C/ | %66
 [G,B,]2 z B,, C,D, | E,/^F,/G,/F,/ G,/A,/B,/A,/ B,/C/D/C/ |[I:staff -1] DE/^F/ G2[I:staff +1] z2 | %69
 B,C D2 D,2 | G,2 z B,, C,D, | E,2 z B,, C,D, | [G,,G,]2 z2 z2 | [G,,G,]2 z2 z2 | %74
 z2[K:treble] D/G/^F/G/ B,/D/C/D/ |[K:bass] [G,,G,]2 z2 z2 | z2[K:treble] D/G/^F/G/ B,/D/C/D/ | %77
[K:bass] G,,/G,/G,,/G,/ B,,/G,/A,,/G,/ B,,/G,/G,,/G,/ | C,/G,/E,/G,/ C,/G,/E,/G,/ C,/G,/E,/G,/ | %79
 B,,/G,/D,/G,/ B,,/G,/D,/G,/ B,,/G,/D,/G,/ | C,/G,/E,/G,/ C,/G,/E,/G,/ C,/G,/E,/G,/ | %81
 B,,/G,/D,/G,/ B,,/G,/D,/G,/ B,,/G,/D,/G,/ | _B,,/G,/D,/G,/ B,,/G,/D,/G,/ B,,/G,/D,/G,/ | %83
 A,,/G,/E,/G,/ A,,/G,/E,/G,/ A,,/G,/E,/G,/ | _D,/A,/E,/A,/ ^C,/A,/E,/A,/ C,/A,/E,/A,/ | %85
 D,/A,/F,/A,/ D,/A,/F,/A,/ D,/A,/F,/A,/ | C,/A,/E,/A,/ C,/A,/E,/A,/ C,/A,/E,/A,/ | %87
 B,,/A,/^F,/A,/ B,,/A,/F,/A,/ B,,/A,/F,/A,/ | _E,/A,/^F,/A,/ E,/A,/F,/A,/ E,/A,/F,/A,/ | %89
 E,/B,/G,/B,/ E,/B,/G,/B,/ E,/B,/G,/B,/ | E,2 ED CB, | A,2 DC B,A, | G,2 CB, A,G, | %93
 ^F,2 B,A, G,F, | [E,G,]4 G,2 | A,2 G,2 B,,B, | E,2 z2 z2 |[K:C] z2 z2 z2 | %98
 z2 G,/C/B,/C/ E,/G,/F,/G,/ | C,4 E,2 | F,2 z2 z2 | D,2 z2 z2 | z2 A,/D/^C/D/ ^F,/A,/G,/A,/ | %103
 D,4 ^F,2 | G,2 z2 z2 | G,4 F2 | E2 C2 E2 | G,,4 MF,2 | E,2 C,2 E,2 | G,2 G,/D/B,/D/ G,/D/B,/D/ | %110
 E,/C/G,/C/ E,/C/G,/C/ E,/C/G,/C/ | F,/D/A,/D/ G,/D/B,/D/ G,/F/D/F/ | %112
 E,/C/G,/C/ E,/C/G,/C/ E,/C/G,/C/ | F,/D/A,/D/ G,/D/B,/D/ G,/F/D/F/ | C2 z E,F,G, | %115
 A,/B,/C/B,/ C/D/E/D/ E/F/G/F/ |[I:staff -1] GA/B/ c2[I:staff +1] z2 | EF G2 G,2 | C,2 z E, F,G, | %119
 A,2 z E, F,G, | [C,,C,]2 z2 z2 | [G,,G,]2 z2 z2 | z2[K:treble] D/G/^F/G/ B,/D/C/D/ | %123
[K:bass] [G,,G,]2 z2 z2 | z2[K:treble] D/G/^F/G/ B,/D/C/D/ | %125
[K:bass] G,,/G,/G,,/G,/ B,,/G,/A,,/G,/ B,,/G,/G,,/G,/ | C,/G,/E,/G,/ C,/G,/E,/G,/ C,/G,/E,/G,/ | %127
 B,,/G,/D,/G,/ B,,/G,/D,/G,/ B,,/G,/D,/G,/ | C,/G,/E,/G,/ C,/G,/E,/G,/ C,/G,/E,/G,/ | %129
 B,,/G,/D,/G,/ B,,/G,/D,/G,/ B,,/G,/D,/G,/ | _B,,/G,/D,/G,/ B,,/G,/D,/G,/ B,,/G,/D,/G,/ | %131
 A,,/G,/E,/G,/ A,,/G,/E,/G,/ A,,/G,/E,/G,/ | _D,/A,/E,/A,/ ^C,/A,/E,/A,/ C,/A,/E,/A,/ | %133
 D,/A,/F,/A,/ D,/A,/F,/A,/ D,/A,/F,/A,/ | C,/A,/E,/A,/ C,/A,/E,/A,/ C,/A,/E,/A,/ | %135
 B,,/A,/^F,/A,/ B,,/A,/F,/A,/ B,,/A,/F,/A,/ | _E,/A,/^F,/A,/ E,/A,/F,/A,/ E,/A,/F,/A,/ | %137
 E,/B,/G,/B,/ E,/B,/G,/B,/ E,/B,/G,/B,/ | E,2 ED CB, | A,2 DC B,A, | G,2 CB, A,G, | %141
 ^F,2 B,A, G,F, | [E,G,]4 G,2 | A,2 G,2 B,,B, | E,4 z2 | z2 z2 z2 | z2 G,/C/B,/C/ E,/G,/F,/G,/ | %147
 C,4 E,2 | F,2 z2 z2 | D,2 z2 z2 | z2 A,/D/^C/D/ ^F,/A,/G,/A,/ | D,4 ^F,2 | G,2 z2 z2 | G,4 F2 | %154
 E2 C2 E2 | G,,4 MF,2 | E,2 C,2 E,2 | G,2 G,/D/B,/D/ G,/D/B,/D/ | %158
 E,/C/G,/C/ E,/C/G,/C/ E,/C/G,/C/ | F,/D/A,/D/ G,/D/B,/D/ G,/F/D/F/ | %160
 E,/C/G,/C/ E,/C/G,/C/ E,/C/G,/C/ | F,/D/A,/D/ G,/D/B,/D/ G,/F/D/F/ | C2 z E,F,G, | %163
 A,/B,/C/B,/ C/D/E/D/ E/F/G/F/ |[I:staff -1] GA/B/ c2[I:staff +1] z2 | EF G2 G,2 | C,2 z E, F,G, | %167
 A,2 z E, F,G, | [C,,C,]6 |] %169
V:3
 x | x6 | x6 | x6 | x6 | x6 | x6 | x6 | x6 | x6 | x6 | x6 | x6 | x6 | c2 B2 x2 | x6 | x6 | x6 | %18
 x6 | x6 | x6 | x6 | x6 | x6 | x6 | x6 | x3 z z2 | x6 | x6 | x6 | x6 | x6 | x6 | B2 G2 ^F2 | x6 | %35
 x6 | x6 | x6 | x6 | x6 | x6 | x6 | x6 | x6 | x6 | x6 | x6 | x6 | x6 | x6 | c2 B2 z x | x6 | x6 | %53
 x6 | x6 | x6 | x6 | x6 | x6 | x6 | x6 | x6 | x6 | x6 | x6 | x6 | x6 | x6 | x6 | B2 G2 ^F2 | x6 | %71
 x6 | x6 | x6 | x6 | x6 | x6 | x6 | x6 | x6 | x6 | x6 | x6 | x6 | x6 | x6 | x6 | x6 | x6 | x6 | %90
 x6 | x6 | x6 | x6 | x6 | x6 | x6 |[K:C] x6 | x6 | x6 | x6 | x6 | x6 | x6 | x6 | x6 | x6 | x6 | %108
 x6 | x4[K:bass] x2 |[K:treble] x6 | x6 | x6 | x6 | x6 | x6 | x6 | e2 c2 B2 | x6 | x6 | x6 | x6 | %122
 x6 | x6 | x6 | x6 | x6 | x6 | x6 | x6 | x6 | x6 | x6 | x6 | x6 | x6 | x6 | x6 | x6 | x6 | x6 | %141
 x6 | x6 | x6 | x6 | x6 | x6 | x6 | x6 | x6 | x6 | x6 | x6 | x6 | x6 | x6 | x6 | x4[K:bass] x2 | %158
[K:treble] x6 | x6 | x6 | x6 | x6 | x6 | x6 | e2 c2 B2 | x6 | x6 | x6 |] %169

